X:1
T:Title
%%score 1 2 3 4
L:1/8
M:3/2
K:G
V:1 treble nm="Choir Aahs"
V:2 treble nm="Choir Aahs"
V:3 bass nm="Choir Aahs"
V:4 bass nm="Choir Aahs"
V:1
 B4 | d3 e d4 e4 | d8 d4 | e8 d4 | B8 B4 | d3 e d4 B4 | e3 d c4 B4 | A8 A4 | G3 A B4 d4 | %9
 B3 A G4 B4 | A8 B4 | d8 d4 | d3 c B2 d2 c3 B | A8 B4 | e4 d8 | B12 |] %16
V:2
 G4 | G8 G4 | F8 G4 | G8 F4 | G8 G4 | F3 G F4 G4 | E8 E2 D2 | D8 D4 | G8 F3 E | D8 D4 | E8 G4 | %11
 F8 D4 | D12- | D8 D4 | E4 F8 | G12 |] %16
V:3
 G,4 | B,3 C B,4 C4 | A,8 B,2 A,2 | C8 A,4 | G,8 D4 | B,4 A,4 G,4 | A,3 B, A,4 G,4 | F,8 D4 | %8
 B,3 A, G,4 B,4 | D3 C B,4 D4 | C8[K:bass] B,4 | A,8 A,4 | B,3 A, G,2 B,2 A,3 G, | F,8 G,4 | %14
 C4 A,8 | G,12 |] %16
V:4
 G,,4 | G,8 C,4 | D,8 B,,4 | C,8 D,4 | G,,8 G,4 | D,8 E,4 | C,8 G,,4 | D,8 D,4 | E,8 D,4 | %9
 G,8 G,4 | C,8 G,,4 | D,8 D,4 | D,12- | D,8 B,,4 | C,4 D,8 | G,,12 |] %16

